cached_logos/ci-management-ci-man.svg

<svg xmlns="http://www.w3.org/2000/svg" role="img" xmlns:xlink="http://www.w3.org/1999/xlink" viewBox="-5.78 -2.28 443.82 143.32"><title>CI-Management (CI-Man) logo</title><defs><g id="glyph-0-0"><path d="M 35.273438 -15.058594 L 40.957031 -13.625 C 39.765625 -8.957031 37.621094 -5.394531 34.527344 -2.945312 C 31.429688 -0.492188 27.648438 0.734375 23.171875 0.734375 C 18.542969 0.734375 14.78125 -0.210938 11.878906 -2.09375 C 8.980469 -3.980469 6.773438 -6.710938 5.257812 -10.28125 C 3.746094 -13.855469 2.988281 -17.695312 2.988281 -21.796875 C 2.988281 -26.269531 3.84375 -30.171875 5.550781 -33.5 C 7.261719 -36.832031 9.691406 -39.359375 12.847656 -41.089844 C 16 -42.816406 19.472656 -43.679688 23.261719 -43.679688 C 27.558594 -43.679688 31.171875 -42.585938 34.101562 -40.398438 C 37.03125 -38.210938 39.070312 -35.136719 40.226562 -31.171875 L 34.628906 -29.851562 C 33.632812 -32.976562 32.1875 -35.253906 30.292969 -36.679688 C 28.398438 -38.105469 26.015625 -38.820312 23.144531 -38.820312 C 19.84375 -38.820312 17.085938 -38.027344 14.867188 -36.445312 C 12.652344 -34.863281 11.09375 -32.738281 10.195312 -30.074219 C 9.296875 -27.40625 8.847656 -24.65625 8.847656 -21.828125 C 8.847656 -18.175781 9.378906 -14.984375 10.445312 -12.261719 C 11.507812 -9.535156 13.164062 -7.5 15.410156 -6.152344 C 17.65625 -4.804688 20.085938 -4.132812 22.703125 -4.132812 C 25.886719 -4.132812 28.585938 -5.046875 30.789062 -6.882812 C 32.996094 -8.71875 34.492188 -11.445312 35.273438 -15.058594 Z M 35.273438 -15.058594"/></g><g id="glyph-0-1"><path d="M 5.59375 0 L 5.59375 -42.949219 L 11.28125 -42.949219 L 11.28125 0 Z M 5.59375 0"/></g><g id="glyph-0-2"><path d="M 1.90625 -12.890625 L 1.90625 -18.195312 L 18.105469 -18.195312 L 18.105469 -12.890625 Z M 1.90625 -12.890625"/></g><g id="glyph-0-3"><path d="M 4.453125 0 L 4.453125 -42.949219 L 13.007812 -42.949219 L 23.171875 -12.539062 C 24.109375 -9.707031 24.796875 -7.585938 25.226562 -6.179688 C 25.714844 -7.742188 26.476562 -10.039062 27.507812 -13.066406 L 37.792969 -42.949219 L 45.4375 -42.949219 L 45.4375 0 L 39.960938 0 L 39.960938 -35.945312 L 27.480469 0 L 22.351562 0 L 9.929688 -36.5625 L 9.929688 0 Z M 4.453125 0"/></g><g id="glyph-0-4"><path d="M 24.257812 -3.835938 C 22.304688 -2.175781 20.425781 -1.007812 18.617188 -0.320312 C 16.8125 0.363281 14.875 0.703125 12.804688 0.703125 C 9.386719 0.703125 6.757812 -0.132812 4.921875 -1.800781 C 3.085938 -3.472656 2.167969 -5.605469 2.167969 -8.203125 C 2.167969 -9.726562 2.515625 -11.117188 3.207031 -12.378906 C 3.902344 -13.636719 4.808594 -14.648438 5.933594 -15.410156 C 7.054688 -16.171875 8.320312 -16.75 9.726562 -17.140625 C 10.761719 -17.414062 12.324219 -17.675781 14.414062 -17.929688 C 18.671875 -18.4375 21.804688 -19.042969 23.820312 -19.746094 C 23.839844 -20.46875 23.847656 -20.929688 23.847656 -21.125 C 23.847656 -23.273438 23.351562 -24.785156 22.351562 -25.664062 C 21.003906 -26.855469 19.003906 -27.453125 16.347656 -27.453125 C 13.867188 -27.453125 12.035156 -27.015625 10.855469 -26.148438 C 9.671875 -25.277344 8.796875 -23.742188 8.234375 -21.53125 L 3.078125 -22.234375 C 3.546875 -24.441406 4.316406 -26.226562 5.390625 -27.582031 C 6.464844 -28.941406 8.015625 -29.984375 10.046875 -30.71875 C 12.078125 -31.449219 14.433594 -31.816406 17.109375 -31.816406 C 19.765625 -31.816406 21.921875 -31.503906 23.585938 -30.878906 C 25.246094 -30.253906 26.464844 -29.46875 27.246094 -28.519531 C 28.027344 -27.574219 28.574219 -26.375 28.886719 -24.929688 C 29.0625 -24.03125 29.148438 -22.414062 29.148438 -20.070312 L 29.148438 -13.039062 C 29.148438 -8.136719 29.261719 -5.035156 29.488281 -3.734375 C 29.710938 -2.4375 30.15625 -1.191406 30.820312 0 L 25.3125 0 C 24.765625 -1.09375 24.414062 -2.375 24.257812 -3.835938 Z M 23.820312 -15.617188 C 21.90625 -14.835938 19.03125 -14.171875 15.203125 -13.625 C 13.035156 -13.3125 11.503906 -12.960938 10.605469 -12.570312 C 9.707031 -12.179688 9.015625 -11.605469 8.523438 -10.855469 C 8.035156 -10.101562 7.792969 -9.265625 7.792969 -8.351562 C 7.792969 -6.945312 8.324219 -5.773438 9.390625 -4.835938 C 10.453125 -3.898438 12.011719 -3.429688 14.0625 -3.429688 C 16.09375 -3.429688 17.898438 -3.871094 19.484375 -4.761719 C 21.066406 -5.648438 22.226562 -6.867188 22.96875 -8.40625 C 23.535156 -9.597656 23.820312 -11.359375 23.820312 -13.679688 Z M 23.820312 -15.617188"/></g><g id="glyph-0-5"><path d="M 3.953125 0 L 3.953125 -31.113281 L 8.703125 -31.113281 L 8.703125 -26.6875 C 10.988281 -30.105469 14.289062 -31.816406 18.601562 -31.816406 C 20.476562 -31.816406 22.203125 -31.480469 23.773438 -30.804688 C 25.347656 -30.132812 26.523438 -29.25 27.304688 -28.15625 C 28.085938 -27.0625 28.632812 -25.761719 28.945312 -24.257812 C 29.140625 -23.28125 29.238281 -21.570312 29.238281 -19.132812 L 29.238281 0 L 23.964844 0 L 23.964844 -18.925781 C 23.964844 -21.074219 23.757812 -22.679688 23.351562 -23.746094 C 22.941406 -24.808594 22.210938 -25.660156 21.167969 -26.292969 C 20.121094 -26.929688 18.898438 -27.246094 17.492188 -27.246094 C 15.246094 -27.246094 13.304688 -26.53125 11.675781 -25.109375 C 10.042969 -23.683594 9.226562 -20.976562 9.226562 -16.992188 L 9.226562 0 Z M 3.953125 0"/></g><g id="glyph-0-6"><path d="M 2.988281 2.578125 L 8.117188 3.339844 C 8.332031 4.921875 8.925781 6.074219 9.902344 6.796875 C 11.210938 7.773438 13 8.261719 15.265625 8.261719 C 17.707031 8.261719 19.589844 7.773438 20.917969 6.796875 C 22.246094 5.820312 23.144531 4.453125 23.613281 2.695312 C 23.886719 1.621094 24.015625 -0.632812 23.992188 -4.070312 C 21.6875 -1.355469 18.820312 0 15.382812 0 C 11.105469 0 7.792969 -1.542969 5.449219 -4.628906 C 3.105469 -7.714844 1.933594 -11.414062 1.933594 -15.734375 C 1.933594 -18.703125 2.46875 -21.441406 3.546875 -23.949219 C 4.621094 -26.460938 6.175781 -28.398438 8.21875 -29.765625 C 10.257812 -31.132812 12.65625 -31.816406 15.410156 -31.816406 C 19.082031 -31.816406 22.109375 -30.332031 24.492188 -27.363281 L 24.492188 -31.113281 L 29.355469 -31.113281 L 29.355469 -4.21875 C 29.355469 0.625 28.863281 4.058594 27.875 6.078125 C 26.890625 8.101562 25.328125 9.695312 23.1875 10.867188 C 21.050781 12.039062 18.417969 12.625 15.292969 12.625 C 11.582031 12.625 8.585938 11.792969 6.296875 10.121094 C 4.011719 8.453125 2.910156 5.9375 2.988281 2.578125 Z M 7.351562 -16.113281 C 7.351562 -12.03125 8.164062 -9.054688 9.785156 -7.179688 C 11.40625 -5.304688 13.4375 -4.367188 15.878906 -4.367188 C 18.300781 -4.367188 20.332031 -5.296875 21.972656 -7.164062 C 23.613281 -9.027344 24.433594 -11.953125 24.433594 -15.9375 C 24.433594 -19.746094 23.589844 -22.617188 21.898438 -24.550781 C 20.210938 -26.484375 18.171875 -27.453125 15.789062 -27.453125 C 13.445312 -27.453125 11.453125 -26.5 9.8125 -24.59375 C 8.171875 -22.691406 7.351562 -19.863281 7.351562 -16.113281 Z M 7.351562 -16.113281"/></g><g id="glyph-0-7"><path d="M 25.253906 -10.019531 L 30.703125 -9.34375 C 29.84375 -6.160156 28.25 -3.691406 25.929688 -1.933594 C 23.605469 -0.175781 20.632812 0.703125 17.023438 0.703125 C 12.472656 0.703125 8.863281 -0.699219 6.195312 -3.5 C 3.53125 -6.304688 2.195312 -10.234375 2.195312 -15.292969 C 2.195312 -20.527344 3.546875 -24.589844 6.242188 -27.480469 C 8.9375 -30.371094 12.429688 -31.816406 16.726562 -31.816406 C 20.886719 -31.816406 24.289062 -30.398438 26.921875 -27.570312 C 29.558594 -24.738281 30.878906 -20.75 30.878906 -15.617188 C 30.878906 -15.304688 30.867188 -14.835938 30.851562 -14.210938 L 7.648438 -14.210938 C 7.84375 -10.792969 8.808594 -8.171875 10.546875 -6.359375 C 12.285156 -4.542969 14.453125 -3.632812 17.050781 -3.632812 C 18.984375 -3.632812 20.632812 -4.140625 22 -5.15625 C 23.367188 -6.171875 24.453125 -7.792969 25.253906 -10.019531 Z M 7.9375 -18.546875 L 25.3125 -18.546875 C 25.078125 -21.164062 24.414062 -23.125 23.320312 -24.433594 C 21.640625 -26.464844 19.460938 -27.480469 16.789062 -27.480469 C 14.367188 -27.480469 12.328125 -26.671875 10.679688 -25.046875 C 9.027344 -23.425781 8.117188 -21.257812 7.9375 -18.546875 Z M 7.9375 -18.546875"/></g><g id="glyph-0-8"><path d="M 3.953125 0 L 3.953125 -31.113281 L 8.671875 -31.113281 L 8.671875 -26.75 C 9.648438 -28.273438 10.945312 -29.496094 12.570312 -30.425781 C 14.191406 -31.351562 16.035156 -31.816406 18.105469 -31.816406 C 20.410156 -31.816406 22.300781 -31.335938 23.773438 -30.382812 C 25.25 -29.425781 26.289062 -28.085938 26.894531 -26.367188 C 29.355469 -30 32.558594 -31.816406 36.503906 -31.816406 C 39.589844 -31.816406 41.960938 -30.960938 43.625 -29.253906 C 45.285156 -27.542969 46.113281 -24.914062 46.113281 -21.359375 L 46.113281 0 L 40.867188 0 L 40.867188 -19.601562 C 40.867188 -21.710938 40.699219 -23.226562 40.355469 -24.15625 C 40.015625 -25.082031 39.394531 -25.828125 38.496094 -26.398438 C 37.597656 -26.964844 36.542969 -27.246094 35.332031 -27.246094 C 33.144531 -27.246094 31.328125 -26.519531 29.882812 -25.0625 C 28.4375 -23.609375 27.714844 -21.28125 27.714844 -18.078125 L 27.714844 0 L 22.441406 0 L 22.441406 -20.214844 C 22.441406 -22.558594 22.011719 -24.316406 21.152344 -25.488281 C 20.292969 -26.660156 18.886719 -27.246094 16.933594 -27.246094 C 15.449219 -27.246094 14.078125 -26.855469 12.816406 -26.074219 C 11.558594 -25.292969 10.644531 -24.148438 10.078125 -22.648438 C 9.511719 -21.144531 9.226562 -18.976562 9.226562 -16.140625 L 9.226562 0 Z M 3.953125 0"/></g><g id="glyph-0-9"><path d="M 15.46875 -4.71875 L 16.230469 -0.0585938 C 14.746094 0.253906 13.417969 0.410156 12.246094 0.410156 C 10.332031 0.410156 8.847656 0.109375 7.792969 -0.5 C 6.738281 -1.105469 5.996094 -1.898438 5.566406 -2.886719 C 5.136719 -3.871094 4.921875 -5.945312 4.921875 -9.109375 L 4.921875 -27.011719 L 1.054688 -27.011719 L 1.054688 -31.113281 L 4.921875 -31.113281 L 4.921875 -38.820312 L 10.164062 -41.984375 L 10.164062 -31.113281 L 15.46875 -31.113281 L 15.46875 -27.011719 L 10.164062 -27.011719 L 10.164062 -8.820312 C 10.164062 -7.316406 10.257812 -6.347656 10.445312 -5.917969 C 10.628906 -5.488281 10.933594 -5.148438 11.351562 -4.890625 C 11.773438 -4.636719 12.375 -4.511719 13.15625 -4.511719 C 13.742188 -4.511719 14.511719 -4.578125 15.46875 -4.71875 Z M 15.46875 -4.71875"/></g><g id="glyph-0-10"><path d="M 14.03125 12.625 C 11.121094 8.953125 8.664062 4.65625 6.648438 -0.265625 C 4.636719 -5.1875 3.632812 -10.28125 3.632812 -15.554688 C 3.632812 -20.203125 4.382812 -24.65625 5.890625 -28.914062 C 7.648438 -33.855469 10.359375 -38.78125 14.03125 -43.679688 L 17.8125 -43.679688 C 15.449219 -39.617188 13.886719 -36.71875 13.125 -34.980469 C 11.933594 -32.285156 10.996094 -29.472656 10.3125 -26.542969 C 9.472656 -22.890625 9.054688 -19.21875 9.054688 -15.527344 C 9.054688 -6.132812 11.972656 3.25 17.8125 12.625 Z M 14.03125 12.625"/></g><g id="glyph-0-11"><path d="M 7.414062 12.625 L 3.632812 12.625 C 9.472656 3.25 12.390625 -6.132812 12.390625 -15.527344 C 12.390625 -19.199219 11.972656 -22.84375 11.132812 -26.453125 C 10.46875 -29.382812 9.539062 -32.195312 8.351562 -34.890625 C 7.589844 -36.648438 6.015625 -39.578125 3.632812 -43.679688 L 7.414062 -43.679688 C 11.085938 -38.777344 13.796875 -33.859375 15.554688 -28.914062 C 17.058594 -24.65625 17.8125 -20.203125 17.8125 -15.554688 C 17.8125 -10.28125 16.800781 -5.1875 14.78125 -0.265625 C 12.757812 4.65625 10.304688 8.953125 7.414062 12.625 Z M 7.414062 12.625"/></g></defs><g><use y="50" xlink:href="#glyph-0-0"/><use x="43.33" y="50" xlink:href="#glyph-0-1"/><use x="60" y="50" xlink:href="#glyph-0-2"/><use x="79.98" y="50" xlink:href="#glyph-0-3"/><use x="129.961" y="50" xlink:href="#glyph-0-4"/><use x="163.33" y="50" xlink:href="#glyph-0-5"/><use x="196.699" y="50" xlink:href="#glyph-0-4"/><use x="230.068" y="50" xlink:href="#glyph-0-6"/><use x="263.438" y="50" xlink:href="#glyph-0-7"/><use x="296.807" y="50" xlink:href="#glyph-0-8"/><use x="346.787" y="50" xlink:href="#glyph-0-7"/><use x="380.156" y="50" xlink:href="#glyph-0-5"/><use x="413.525" y="50" xlink:href="#glyph-0-9"/></g><g><use y="120" xlink:href="#glyph-0-10"/><use x="19.98" y="120" xlink:href="#glyph-0-0"/><use x="63.311" y="120" xlink:href="#glyph-0-1"/><use x="79.98" y="120" xlink:href="#glyph-0-2"/><use x="99.961" y="120" xlink:href="#glyph-0-3"/><use x="149.941" y="120" xlink:href="#glyph-0-4"/><use x="183.311" y="120" xlink:href="#glyph-0-5"/><use x="216.68" y="120" xlink:href="#glyph-0-11"/></g></svg>

<svg xmlns="http://www.w3.org/2000/svg" role="img" xmlns:xlink="http://www.w3.org/1999/xlink" viewBox="-5.78 -2.28 443.82 143.32"><title>CI-Management (CI-Man) logo</title><defs><path d="M35.27344-15.0586l5.6836 1.4336c-1.19141 4.66797-3.33595 8.23047-6.4297 10.67969C31.4297-.4922 27.64844.73438 23.17187.73438c-4.6289 0-8.39062-.94532-11.29296-2.82813-2.89844-1.88672-5.10547-4.61719-6.6211-8.1875-1.51172-3.57422-2.26953-7.41406-2.26953-11.51563 0-4.47265.85547-8.375 2.5625-11.70312 1.71094-3.33203 4.14063-5.85938 7.29688-7.58984C16-42.81641 19.47266-43.6797 23.26172-43.6797c4.29687 0 7.91015 1.09375 10.83984 3.28125 2.92969 2.1875 4.96875 5.26172 6.125 9.22657l-5.59765 1.3203c-.9961-3.125-2.44141-5.40234-4.33594-6.82812-1.89453-1.42578-4.27735-2.14062-7.14844-2.14062-3.30078 0-6.0586.79297-8.27734 2.375-2.21485 1.58203-3.77344 3.70703-4.67188 6.3711-.89843 2.66796-1.34765 5.41796-1.34765 8.24609 0 3.65234.53125 6.84374 1.59765 9.5664 1.0625 2.72656 2.71875 4.76172 4.96485 6.10938 2.24609 1.34765 4.67578 2.01953 7.29297 2.01953 3.18359 0 5.8828-.91406 8.08593-2.75 2.20703-1.83594 3.70313-4.5625 4.48438-8.17578zm0 0" id="a"/><path d="M5.59375 0v-42.94922h5.6875V0zm0 0" id="b"/><path d="M1.90625-12.89063v-5.30468h16.19922v5.30468zm0 0" id="c"/><path d="M4.45313 0v-42.94922h8.55468l10.16407 30.41016c.9375 2.83203 1.625 4.95312 2.05468 6.35937.48828-1.5625 1.25-3.85937 2.28125-6.88672l10.28516-29.8828h7.64453V0h-5.47656v-35.94531L27.48047 0h-5.1289L9.92968-36.5625V0zm0 0" id="d"/><path d="M24.25781-3.83594C22.3047-2.17578 20.42578-1.0078 18.6172-.3203 16.8125.36329 14.875.70313 12.80469.70313c-3.41797 0-6.04688-.83594-7.88282-2.50391-1.83593-1.67188-2.7539-3.80469-2.7539-6.40235 0-1.52343.34766-2.91406 1.03906-4.17578.69531-1.2578 1.60156-2.26953 2.72656-3.03125 1.1211-.76172 2.38672-1.33984 3.79297-1.73047 1.03516-.27343 2.59766-.53515 4.6875-.78906 4.25782-.50781 7.39063-1.11328 9.40625-1.8164.01953-.72266.02735-1.1836.02735-1.37891 0-2.14844-.4961-3.66016-1.4961-4.53906-1.34765-1.1914-3.34765-1.78907-6.0039-1.78907-2.48047 0-4.3125.4375-5.4922 1.3047-1.18359.87109-2.05859 2.40624-2.62109 4.61718l-5.15625-.70313c.46875-2.20703 1.23829-3.99218 2.3125-5.34765 1.07422-1.35938 2.625-2.40235 4.65625-3.13672 2.03125-.73047 4.38672-1.09766 7.0625-1.09766 2.65626 0 4.8125.3125 6.47657.9375 1.66015.625 2.8789 1.41016 3.66015 2.35938.78125.94531 1.32813 2.14453 1.64063 3.58984.17578.89844.26172 2.51563.26172 4.85938v7.03125c0 4.90234.11328 8.0039.33984 9.30468C29.71094-2.4375 30.15625-1.1914 30.82031 0H25.3125c-.54688-1.09375-.89844-2.375-1.05469-3.83594zm-.4375-11.78125c-1.91406.78125-4.78906 1.44532-8.61718 1.99219-2.16797.3125-3.69922.66406-4.59766 1.05469-.89844.39062-1.58985.96484-2.08203 1.71484-.48828.7539-.73047 1.58985-.73047 2.5039 0 1.40626.53125 2.57813 1.59765 3.51563 1.0625.9375 2.6211 1.40625 4.67188 1.40625 2.03125 0 3.83594-.4414 5.42188-1.33203 1.58203-.88672 2.74218-2.10547 3.48437-3.64453.5664-1.1914.85156-2.95313.85156-5.27344zm0 0" id="e"/><path d="M3.95313 0v-31.11328h4.75v4.42578c2.28515-3.41797 5.58593-5.1289 9.89843-5.1289 1.875 0 3.60157.33593 5.17188 1.01171 1.57422.67188 2.75 1.55469 3.53125 2.64844s1.32812 2.39453 1.64062 3.89844c.19532.97656.29297 2.6875.29297 5.125V0h-5.27344v-18.92578c0-2.14844-.20703-3.7539-.61328-4.82031-.41015-1.0625-1.14062-1.91407-2.1836-2.54688-1.04687-.63672-2.26952-.95312-3.67577-.95312-2.2461 0-4.1875.71484-5.8164 2.13671-1.63282 1.42579-2.44923 4.13282-2.44923 8.1172V0zm0 0" id="f"/><path d="M2.98828 2.57813l5.1289.76171c.21485 1.58203.8086 2.73438 1.78516 3.45703 1.3086.97657 3.09766 1.46485 5.36328 1.46485 2.44141 0 4.32422-.48828 5.65235-1.46485 1.32812-.97656 2.22656-2.34375 2.69531-4.10156.27344-1.07422.40235-3.32812.3789-6.76562C21.6875-1.35547 18.82032 0 15.38282 0c-4.27734 0-7.58984-1.54297-9.9336-4.6289C3.10548-7.71485 1.9336-11.41407 1.9336-15.73438c0-2.96875.53516-5.70704 1.61329-8.21485 1.07421-2.51172 2.6289-4.44922 4.67187-5.8164 2.03906-1.3672 4.4375-2.05079 7.1914-2.05079 3.67188 0 6.69923 1.48438 9.08204 4.45313v-3.75h4.86328v26.89453c0 4.84375-.49219 8.27734-1.48047 10.29688-.98438 2.02343-2.54688 3.61718-4.6875 4.78906-2.13672 1.17187-4.76953 1.75781-7.89453 1.75781-3.71094 0-6.70703-.83203-8.9961-2.5039-2.28515-1.66798-3.38671-4.1836-3.30859-7.54298zm4.36328-18.69141c0 4.08203.8125 7.0586 2.4336 8.9336 1.62109 1.875 3.65234 2.8125 6.09375 2.8125 2.42187 0 4.45312-.9297 6.09375-2.79688 1.64062-1.86328 2.46093-4.78906 2.46093-8.77344 0-3.8086-.84375-6.67969-2.53515-8.61328-1.6875-1.9336-3.72657-2.90235-6.10938-2.90235-2.34375 0-4.33593.95313-5.97656 2.85938-1.64063 1.90234-2.46094 4.73047-2.46094 8.48047zm0 0" id="g"/><path d="M25.2539-10.01953l5.44922.67578c-.85937 3.1836-2.45312 5.65234-4.77343 7.41016C23.60547-.1758 20.6328.70312 17.02344.70312 12.47266.70313 8.86328-.69921 6.1953-3.5c-2.66406-2.80469-4-6.73438-4-11.79297 0-5.23437 1.35156-9.29687 4.04688-12.1875 2.69531-2.89062 6.1875-4.33594 10.48437-4.33594 4.16016 0 7.5625 1.41797 10.19532 4.2461C29.55859-24.73828 30.8789-20.75 30.8789-15.6172c0 .3125-.01172.78125-.02735 1.40625H7.64844c.19531 3.41797 1.16015 6.03907 2.89844 7.85157 1.73828 1.8164 3.90625 2.72656 6.5039 2.72656 1.9336 0 3.58203-.50781 4.94922-1.52344 1.36719-1.01563 2.45313-2.63672 3.2539-4.86328zM7.9375-18.54688h17.375c-.23438-2.61718-.89844-4.57812-1.99219-5.88671-1.67968-2.03125-3.85937-3.04688-6.53125-3.04688-2.42187 0-4.46093.8086-6.10937 2.4336-1.65235 1.62109-2.5625 3.78906-2.74219 6.5zm0 0" id="h"/><path d="M3.95313 0v-31.11328h4.71875V-26.75c.97656-1.52344 2.27343-2.7461 3.89843-3.67578 1.6211-.92578 3.46485-1.39063 5.53516-1.39063 2.30469 0 4.19531.48047 5.66797 1.4336 1.47656.95703 2.51562 2.29687 3.1211 4.01562C29.35546-30 32.55858-31.8164 36.5039-31.8164c3.08593 0 5.45703.85547 7.12109 2.5625 1.66016 1.71094 2.48828 4.33985 2.48828 7.89454V0h-5.2461v-19.60156c0-2.10938-.16796-3.625-.51171-4.55469-.33984-.92578-.96094-1.67188-1.85938-2.24219-.89843-.5664-1.95312-.84765-3.16406-.84765-2.1875 0-4.0039.72656-5.44922 2.18359-1.44531 1.45313-2.16797 3.78125-2.16797 6.98438V0h-5.27343v-20.21484c0-2.34375-.4297-4.10157-1.28907-5.27344-.85937-1.17188-2.26562-1.75781-4.21875-1.75781-1.48437 0-2.85546.39062-4.11718 1.17187-1.25782.78125-2.17188 1.92578-2.73828 3.42578-.56641 1.5039-.85157 3.67188-.85157 6.50782V0zm0 0" id="i"/><path d="M15.46875-4.71875l.76172 4.66016c-1.48438.3125-2.8125.46875-3.98438.46875-1.91406 0-3.39843-.30079-4.45312-.91016-1.05469-.60547-1.79688-1.39844-2.22656-2.38672-.4297-.98437-.64454-3.0586-.64454-6.22266v-17.90234H1.0547v-4.10156h3.86719v-7.70703l5.24218-3.16407v10.8711h5.30469v4.10156h-5.30469v18.1914c0 1.50391.09375 2.47266.28125 2.90235.1836.42969.48828.76953.90625 1.02735.42188.2539 1.02344.3789 1.80469.3789.58594 0 1.35547-.0664 2.3125-.20703zm0 0" id="j"/><path d="M14.03125 12.625C11.12109 8.95312 8.66406 4.65625 6.64844-.26563 4.63672-5.1875 3.6328-10.28125 3.6328-15.55468c0-4.64843.75-9.10156 2.25781-13.35937 1.75782-4.9414 4.46875-9.86719 8.14063-14.76563h3.78125c-2.36328 4.0625-3.92578 6.96094-4.6875 8.69922-1.1914 2.69531-2.1289 5.50781-2.8125 8.4375-.83984 3.65235-1.25781 7.32422-1.25781 11.01563 0 9.39453 2.91797 18.77734 8.75781 28.15234zm0 0" id="k"/><path d="M7.41406 12.625H3.63281c5.83985-9.375 8.75782-18.75781 8.75782-28.15234 0-3.67188-.41797-7.31641-1.25782-10.92578-.66406-2.9297-1.59375-5.7422-2.78125-8.4375-.76172-1.75782-2.33593-4.6875-4.71875-8.78907h3.78125c3.67188 4.90235 6.38281 9.82032 8.14063 14.76563 1.5039 4.25781 2.25781 8.71093 2.25781 13.35937 0 5.27344-1.01172 10.36719-3.03125 15.28907-2.02344 4.92187-4.47656 9.21875-7.36719 12.89062zm0 0" id="l"/></defs><use y="50" xlink:href="#a"/><use x="43.33" y="50" xlink:href="#b"/><use x="60" y="50" xlink:href="#c"/><use x="79.98" y="50" xlink:href="#d"/><use x="129.961" y="50" xlink:href="#e"/><use x="163.33" y="50" xlink:href="#f"/><use x="196.699" y="50" xlink:href="#e"/><use x="230.068" y="50" xlink:href="#g"/><use x="263.438" y="50" xlink:href="#h"/><use x="296.807" y="50" xlink:href="#i"/><use x="346.787" y="50" xlink:href="#h"/><use x="380.156" y="50" xlink:href="#f"/><use x="413.525" y="50" xlink:href="#j"/><g><use y="120" xlink:href="#k"/><use x="19.98" y="120" xlink:href="#a"/><use x="63.311" y="120" xlink:href="#b"/><use x="79.98" y="120" xlink:href="#c"/><use x="99.961" y="120" xlink:href="#d"/><use x="149.941" y="120" xlink:href="#e"/><use x="183.311" y="120" xlink:href="#f"/><use x="216.68" y="120" xlink:href="#l"/></g></svg>
